evolvere-2-blue-mono/apps/16/octopi.svg

<?xml version="1.0" encoding="UTF-8" standalone="no"?>
<!-- Created with Inkscape (http://www.inkscape.org/) -->

<svg
   xmlns:dc="http://purl.org/dc/elements/1.1/"
   xmlns:cc="http://creativecommons.org/ns#"
   xmlns:rdf="http://www.w3.org/1999/02/22-rdf-syntax-ns#"
   xmlns:svg="http://www.w3.org/2000/svg"
   xmlns="http://www.w3.org/2000/svg"
   xmlns:sodipodi="http://sodipodi.sourceforge.net/DTD/sodipodi-0.dtd"
   xmlns:inkscape="http://www.inkscape.org/namespaces/inkscape"
   sodipodi:docname="octopi.svg"
   inkscape:version="0.48.3.1 r9886"
   version="1.1"
   id="svg13094"
   height="16"
   width="16">
  <sodipodi:namedview
     id="base"
     pagecolor="#ffffff"
     bordercolor="#666666"
     borderopacity="1.0"
     inkscape:pageopacity="0.0"
     inkscape:pageshadow="2"
     inkscape:zoom="33.131501"
     inkscape:cx="8.4948713"
     inkscape:cy="8.6223685"
     inkscape:document-units="px"
     inkscape:current-layer="layer1"
     showgrid="true"
     inkscape:snap-bbox="true"
     inkscape:bbox-paths="true"
     inkscape:bbox-nodes="true"
     inkscape:snap-bbox-edge-midpoints="true"
     inkscape:snap-bbox-midpoints="true"
     inkscape:object-paths="true"
     inkscape:snap-intersection-paths="true"
     inkscape:object-nodes="true"
     inkscape:snap-smooth-nodes="true"
     inkscape:snap-midpoints="true"
     inkscape:snap-object-midpoints="true"
     inkscape:snap-center="true"
     showguides="false"
     inkscape:guide-bbox="true"
     inkscape:window-width="1920"
     inkscape:window-height="1027"
     inkscape:window-x="-10"
     inkscape:window-y="31"
     inkscape:window-maximized="1"
     inkscape:snap-global="true"
     fit-margin-top="0"
     fit-margin-left="0"
     fit-margin-right="0"
     fit-margin-bottom="0"
     showborder="true"
     inkscape:showpageshadow="false">
    <sodipodi:guide
       orientation="0,1"
       position="7904.3893,1688.6364"
       id="guide16149" />
    <sodipodi:guide
       orientation="0,1"
       position="7677.2464,1639.6277"
       id="guide16151" />
    <sodipodi:guide
       orientation="0,1"
       position="7742.9606,1664.132"
       id="guide16153" />
    <sodipodi:guide
       orientation="0,1"
       position="7736.5321,1583.9848"
       id="guide17725" />
    <sodipodi:guide
       orientation="1,0"
       position="8234.0303,1192.115"
       id="guide9456" />
    <sodipodi:guide
       orientation="0,1"
       position="8058.2804,1557.1639"
       id="guide9458" />
    <sodipodi:guide
       orientation="0,1"
       position="7829.5106,1502.2585"
       id="guide9468" />
    <sodipodi:guide
       orientation="0,1"
       position="7854.0304,1523.6285"
       id="guide9470" />
    <sodipodi:guide
       orientation="1,0"
       position="7722.0304,1237.629"
       id="guide11159" />
    <sodipodi:guide
       orientation="1,0"
       position="8035.0616,1501.6635"
       id="guide13980" />
    <sodipodi:guide
       id="guide3972"
       position="6181.0305,126.62899"
       orientation="0,1" />
    <sodipodi:guide
       id="guide3974"
       position="6361.0305,-1.3710498"
       orientation="1,0" />
    <sodipodi:guide
       id="guide3976"
       position="6055.0305,-236.37095"
       orientation="0,1" />
    <sodipodi:guide
       id="guide3978"
       position="6028.0305,-95.37105"
       orientation="1,0" />
    <sodipodi:guide
       id="guide4287"
       position="1377.8013,1369.629"
       orientation="1,0" />
    <sodipodi:guide
       id="guide4289"
       position="1377.8013,1369.629"
       orientation="0,1" />
    <inkscape:grid
       type="xygrid"
       id="grid3918"
       empspacing="5"
       visible="true"
       enabled="true"
       snapvisiblegridlinesonly="true"
       originx="0.00017297285px"
       originy="71.999982px" />
  </sodipodi:namedview>
  <defs
     id="defs13096" />
  <metadata
     id="metadata13099">
    <rdf:RDF>
      <cc:Work
         rdf:about="">
        <dc:format>image/svg+xml</dc:format>
        <dc:type
           rdf:resource="http://purl.org/dc/dcmitype/StillImage" />
        <dc:title />
      </cc:Work>
    </rdf:RDF>
  </metadata>
  <g
     inkscape:label="Camada 1"
     inkscape:groupmode="layer"
     id="layer1"
     transform="translate(9368.675,-1544.5613)">
    <path
       id="path3844"
       d="m -9360.675,1545.5613 c -2.7614,0 -5,2.2386 -5,5 0,1.31 0.5194,2.4835 1.3438,3.375 l -1.0938,4.125 1.9063,0.5313 0.9062,-3.4375 c 0.2991,0.1265 0.612,0.2458 0.9375,0.3125 l 0,4.0937 2,0 0,-4.0937 c 0.3494,-0.072 0.6813,-0.2035 1,-0.3438 l 0.9688,3.4688 1.9375,-0.5313 -1.1875,-4.1875 c 0.7898,-0.8842 1.2812,-2.0336 1.2812,-3.3125 0,-2.7614 -2.2386,-5 -5,-5 z m -2,3 c 0.8284,0 1.5,0.6716 1.5,1.5 0,0.8284 -0.6716,1.5 -1.5,1.5 -0.8284,0 -1.5,-0.6716 -1.5,-1.5 0,-0.8284 0.6716,-1.5 1.5,-1.5 z m 4,0 c 0.8284,0 1.5,0.6716 1.5,1.5 0,0.8284 -0.6716,1.5 -1.5,1.5 -0.8284,0 -1.5,-0.6716 -1.5,-1.5 0,-0.8284 0.6716,-1.5 1.5,-1.5 z m -3.5,1 c -0.2761,0 -0.5,0.2239 -0.5,0.5 0,0.2761 0.2239,0.5 0.5,0.5 0.2761,0 0.5,-0.2239 0.5,-0.5 0,-0.2761 -0.2239,-0.5 -0.5,-0.5 z m 4,0 c -0.2761,0 -0.5,0.2239 -0.5,0.5 0,0.2761 0.2239,0.5 0.5,0.5 0.2761,0 0.5,-0.2239 0.5,-0.5 0,-0.2761 -0.2239,-0.5 -0.5,-0.5 z"
       style="opacity:1;color:#000000;fill:#27303a;fill-opacity:0.75328081999999996;fill-rule:nonzero;stroke:none;stroke-width:2;marker:none;visibility:visible;display:inline;overflow:visible;enable-background:accumulate"
       inkscape:connector-curvature="0" />
    <path
       style="font-size:medium;font-style:normal;font-variant:normal;font-weight:normal;font-stretch:normal;text-indent:0;text-align:start;text-decoration:none;line-height:normal;letter-spacing:normal;word-spacing:normal;text-transform:none;direction:ltr;block-progression:tb;writing-mode:lr-tb;text-anchor:start;baseline-shift:baseline;color:#000000;fill:#f1f3f5;fill-opacity:0.90288714000000003;fill-rule:nonzero;stroke:none;stroke-width:2;marker:none;visibility:visible;display:inline;overflow:visible;enable-background:accumulate;font-family:Sans;-inkscape-font-specification:Sans"
       d="M 8 0 C 4.6981 0 2 2.6981 2 6 C 2 7.3377 2.54355 8.5118 3.28125 9.5 L 2.03125 13.25 L 2.03125 14.1875 L 2.96875 14.46875 L 3.25 13.5 L 4.34375 9.375 C 3.51935 8.4835 3 7.31 3 6 C 3 3.2386 5.2386 1 8 1 C 10.7614 1 13 3.2386 13 6 C 13 7.2789 12.50855 8.4283 11.71875 9.3125 L 12.90625 13.5 L 13.15625 14.46875 L 14.15625 14.1875 L 14.125 13.21875 L 12.8125 9.4375 C 13.5211 8.4595 14 7.3074 14 6 C 14 2.6981 11.3019 0 8 0 z M 6 4 C 5.1716 4 4.5 4.6716 4.5 5.5 C 4.5 6.3284 5.1716 7 6 7 C 6.8284 7 7.5 6.3284 7.5 5.5 C 7.5 4.6716 6.8284 4 6 4 z M 10 4 C 9.1716 4 8.5 4.6716 8.5 5.5 C 8.5 6.3284 9.1716 7 10 7 C 10.8284 7 11.5 6.3284 11.5 5.5 C 11.5 4.6716 10.8284 4 10 4 z M 6.5 5 C 6.7761 5 7 5.2239 7 5.5 C 7 5.7761 6.7761 6 6.5 6 C 6.2593453 6 6.0788911 5.8202561 6.03125 5.59375 C 6.015 5.5713031 6 5.53305 6 5.5 C 6 5.4645547 6.0242331 5.4396114 6.03125 5.40625 C 6.0788911 5.1797439 6.2593453 5 6.5 5 z M 10.5 5 C 10.7761 5 11 5.2239 11 5.5 C 11 5.7761 10.7761 6 10.5 6 C 10.259345 6 10.078891 5.8202561 10.03125 5.59375 C 10.015 5.5713031 10 5.53305 10 5.5 C 10 5.4645547 10.024233 5.4396114 10.03125 5.40625 C 10.078891 5.1797439 10.259345 5 10.5 5 z M 10 10.5625 C 9.6813 10.7028 9.3494 10.83425 9 10.90625 L 9 14 L 9 15 L 9 16 L 10 16 L 10 14.3125 L 10 10.5625 z M 6.0625 10.59375 L 6 10.84375 L 6 14.78125 L 6 15 L 6 16 L 7 16 L 7 15 L 7 14 L 7 10.90625 C 6.6745 10.83955 6.3616 10.72025 6.0625 10.59375 z "
       transform="translate(-9368.675,1544.5613)"
       id="path3794" />
    <path
       sodipodi:type="arc"
       style="opacity:0.52493436;color:#000000;fill:#f1f3f5;fill-opacity:0.90288714000000003;fill-rule:nonzero;stroke:none;stroke-width:2;marker:none;visibility:visible;display:inline;overflow:visible;enable-background:accumulate"
       id="path3001"
       sodipodi:cx="8.0001726"
       sodipodi:cy="5.0000181"
       sodipodi:rx="4"
       sodipodi:ry="4"
       d="m 12.000173,5.0000181 a 4,4 0 1 1 -8.0000004,0 4,4 0 1 1 8.0000004,0 z"
       transform="matrix(1.2499997,0,0,1.2499997,-9384.6404,1544.9306)" />
    <path
       inkscape:connector-curvature="0"
       id="path3790"
       d="m -9374.6402,1553.1806 0,7"
       style="color:#000000;fill:none;stroke:#d1d3d6;stroke-width:2;stroke-opacity:0.38823529;marker:none;visibility:visible;display:inline;overflow:visible;enable-background:accumulate" />
    <path
       inkscape:connector-curvature="0"
       id="path3792"
       d="m -9376.6402,1552.1806 -1.8117,6.7615"
       style="color:#000000;fill:none;stroke:#d1d3d6;stroke-width:2;stroke-opacity:0.38823529;marker:none;visibility:visible;display:inline;overflow:visible;enable-background:accumulate" />
    <path
       style="color:#000000;fill:none;stroke:#d1d3d6;stroke-width:2;stroke-opacity:0.38823529;marker:none;visibility:visible;display:inline;overflow:visible;enable-background:accumulate"
       d="m -9372.6402,1552.1806 1.9307,6.7615"
       id="path3788"
       inkscape:connector-curvature="0" />
  </g>
</svg>

<?xml version="1.0" encoding="UTF-8"?>
<!-- Created with Inkscape (http://www.inkscape.org/) -->
<svg width="16" height="16" version="1.1" xmlns="http://www.w3.org/2000/svg" xmlns:cc="http://creativecommons.org/ns#" xmlns:dc="http://purl.org/dc/elements/1.1/" xmlns:rdf="http://www.w3.org/1999/02/22-rdf-syntax-ns#">
	<metadata>
		<rdf:RDF>
			<cc:Work rdf:about="">
				<dc:format>image/svg+xml</dc:format>
				<dc:type rdf:resource="http://purl.org/dc/dcmitype/StillImage"/>
			</cc:Work>
		</rdf:RDF>
	</metadata>
	<defs>
		<style id="current-color-scheme" type="text/css">.ColorScheme-Text {
				color:#090d11;
			}
			.ColorScheme-Background{
				color:#ffffff;
			}</style>
	</defs>
	<path class="ColorScheme-Background" d="m8 0c-3.3019 0-6 2.6981-6 6 0 1.3377 0.5436 2.5118 1.2813 3.5l-1.25 3.75v0.9375l0.9375 0.2813 0.2812-0.9688 1.0938-4.125c-0.8244-0.8915-1.3438-2.065-1.3438-3.375 0-2.7614 2.2386-5 5-5s5 2.2386 5 5c0 1.2789-0.4914 2.4283-1.2812 3.3125l1.1875 4.1875 0.25 0.9688 1-0.2813-0.031-0.9687-1.3125-3.7813c0.7086-0.978 1.1875-2.1301 1.1875-3.4375 0-3.3019-2.6981-6-6-6zm-2 4c-0.8284 0-1.5 0.6716-1.5 1.5s0.6716 1.5 1.5 1.5 1.5-0.6716 1.5-1.5-0.6716-1.5-1.5-1.5zm4 0c-0.8284 0-1.5 0.6716-1.5 1.5s0.6716 1.5 1.5 1.5 1.5-0.6716 1.5-1.5-0.6716-1.5-1.5-1.5zm-3.5 1c0.2761 0 0.5 0.2239 0.5 0.5s-0.2239 0.5-0.5 0.5c-0.2407 0-0.4211-0.1797-0.4687-0.4062-0.016-0.023-0.031-0.061-0.031-0.094 0-0.035 0.024-0.06 0.031-0.094 0.048-0.2266 0.228-0.4063 0.4687-0.4063zm4 0c0.2761 0 0.5 0.2239 0.5 0.5s-0.2239 0.5-0.5 0.5c-0.2407 0-0.4211-0.1797-0.4687-0.4062-0.016-0.023-0.031-0.061-0.031-0.094 0-0.035 0.024-0.06 0.031-0.094 0.048-0.2266 0.228-0.4063 0.4687-0.4063zm-0.5 5.5625c-0.3187 0.1403-0.6506 0.2718-1 0.3438v5.0937h1v-1.6875zm-3.9375 0.031-0.062 0.25v5.1562h1v-5.0937c-0.3255-0.067-0.6384-0.186-0.9375-0.3125z" style="fill-opacity:.5;fill:currentColor"/>
	<path class="ColorScheme-Text" d="m8 1c-2.7614 0-5 2.2386-5 5 0 1.31 0.5194 2.4835 1.3438 3.375l-1.0938 4.125c-0.2808 1.048 1.6091 1.6403 1.9063 0.5313l0.9062-3.4375c0.2991 0.1265 0.612 0.2458 0.9375 0.3125v4.0937c0 1.0377 2 1.0014 2 0v-4.0937c0.3494-0.072 0.6813-0.2035 1-0.3438l0.9688 3.4688c0.2099 0.7832 2.206 0.3454 1.9375-0.5313l-1.1875-4.1875c0.7898-0.8842 1.2812-2.0336 1.2812-3.3125 0-2.7614-2.2386-5-5-5zm-2 3c0.8284 0 1.5 0.6716 1.5 1.5s-0.6716 1.5-1.5 1.5-1.5-0.6716-1.5-1.5 0.6716-1.5 1.5-1.5zm4 0c0.8284 0 1.5 0.6716 1.5 1.5s-0.6716 1.5-1.5 1.5-1.5-0.6716-1.5-1.5 0.6716-1.5 1.5-1.5zm-3.5 1c-0.2761 0-0.5 0.2239-0.5 0.5s0.2239 0.5 0.5 0.5 0.5-0.2239 0.5-0.5-0.2239-0.5-0.5-0.5zm4 0c-0.2761 0-0.5 0.2239-0.5 0.5s0.2239 0.5 0.5 0.5 0.5-0.2239 0.5-0.5-0.2239-0.5-0.5-0.5z" style="fill-opacity:.75;fill:currentColor"/>
</svg>
